X:33
T:Roslin Castle. JClw.33
M:4/4
L:1/8
Q:1/4=80
S:J.Clews MS,Stoke-upon-Tern,Shrops.1832
N:Marked "Grave con molto (Eipr??). Could be Expr.
N:i.e. serious and slow with lots of expression.
A:N. Shropshire
Z:Neil Brookes 2006
K:Em
G>F|E2B>cB2A>B|cBAG F2G>F|E2efg2fe|^d>efd B2A>B|!
cBAGF2GA|BGFE e^def|gef^d eB A>B|G2TF2{F}E2:|!
|:B2|e2efg2fe|b>a ga gfe^d|eBefg2fe|b>a g/b/a/g/f2 AB|!
cBAGF2GA|BGFE e>^def|gef^d eB A>B|G2TF2{F}E2:|

